src/lib/packages/icons/src/assets/filled/scan.svg

<svg width="24" height="24" viewBox="0 0 24 24" fill="none" xmlns="http://www.w3.org/2000/svg">
<path d="M21.75 12C21.75 12.414 21.414 12.75 21 12.75H19.5V18C19.5 20.29 18.29 21.5 16 21.5H8C5.71 21.5 4.5 20.29 4.5 18V12.75H3C2.586 12.75 2.25 12.414 2.25 12C2.25 11.586 2.586 11.25 3 11.25H21C21.414 11.25 21.75 11.586 21.75 12ZM5 9.75C5.414 9.75 5.75 9.414 5.75 9V6C5.75 4.423 6.423 3.75 8 3.75H16C17.577 3.75 18.25 4.423 18.25 6V9C18.25 9.414 18.586 9.75 19 9.75C19.414 9.75 19.75 9.414 19.75 9V6C19.75 3.582 18.418 2.25 16 2.25H8C5.582 2.25 4.25 3.582 4.25 6V9C4.25 9.414 4.586 9.75 5 9.75Z" fill="currentColor"/>
</svg>

<svg xmlns="http://www.w3.org/2000/svg" width="24" height="24" fill="none"><path fill="currentColor" d="M21.75 12a.75.75 0 0 1-.75.75h-1.5V18c0 2.29-1.21 3.5-3.5 3.5H8c-2.29 0-3.5-1.21-3.5-3.5v-5.25H3a.75.75 0 0 1 0-1.5h18a.75.75 0 0 1 .75.75ZM5 9.75A.75.75 0 0 0 5.75 9V6c0-1.577.673-2.25 2.25-2.25h8c1.577 0 2.25.673 2.25 2.25v3a.75.75 0 0 0 1.5 0V6c0-2.418-1.332-3.75-3.75-3.75H8C5.582 2.25 4.25 3.582 4.25 6v3c0 .414.336.75.75.75Z"/></svg>
